;FLAVOR:Marlin
;TIME:4152
;Filament used: 1.22067m
;Layer height: 0.15
;MINX:102.088
;MINY:112.475
;MINZ:0.2
;MAXX:132.511
;MAXY:122.525
;MAXZ:64.86
;Generated with Cura_SteamEngine 4.7.1
M140 S50
M105
M190 S50
M104 S200
M105
M109 S200
M82 ;absolute extrusion mode
; Ender 3 Custom Start G-code
G92 E0 ; Reset Extruder
G28 ; Home all axes
G1 Z2.0 F3000 ; Move Z Axis up little to prevent scratching of Heat Bed
G1 X0.1 Y20 Z0.3 F5000.0 ; Move to start position
G1 X0.1 Y200.0 Z0.3 F1500.0 E15 ; Draw the first line
G1 X0.4 Y200.0 Z0.3 F5000.0 ; Move to side a little
G1 X0.4 Y20 Z0.3 F1500.0 E30 ; Draw the second line
G92 E0 ; Reset Extruder
G1 Z2.0 F3000 ; Move Z Axis up little to prevent scratching of Heat Bed
G1 X5 Y20 Z0.3 F5000.0 ; Move over to prevent blob squish
G92 E0
G92 E0
G1 F2700 E-5
;LAYER_COUNT:439
;LAYER:0
M107
G0 F6000 X103.666 Y113.847 Z0.2
;TYPE:SKIRT
G1 F2700 E0
G1 F1200 X103.946 Y113.606 E0.01229
G1 X104.127 Y113.465 E0.01992
G1 X104.599 Y113.151 E0.03877
G1 X104.825 Y113.032 E0.04727
G1 X105.03 Y112.933 E0.05484
G1 X105.351 Y112.796 E0.06645
G1 X105.759 Y112.666 E0.08069
G1 X105.977 Y112.61 E0.08818
G1 X106.638 Y112.502 E0.11045
G1 X106.838 Y112.487 E0.11712
G1 X107.122 Y112.476 E0.12658
G1 X128.112 Y112.475 E0.82471
G1 X128.535 Y112.499 E0.8388
G1 X128.767 Y112.525 E0.84656
G1 X129.309 Y112.626 E0.8649
G1 X129.66 Y112.736 E0.87714
G1 X129.874 Y112.815 E0.88472
G1 X130.376 Y113.043 E0.90306
G1 X130.839 Y113.341 E0.92137
G1 X131.191 Y113.64 E0.93674
G1 X131.344 Y113.787 E0.94379
G1 X131.712 Y114.196 E0.96209
G1 X132.018 Y114.655 E0.98044
G1 X132.254 Y115.153 E0.99877
G1 X132.415 Y115.68 E1.0171
G1 X132.499 Y116.224 E1.0354
G1 X132.511 Y116.527 E1.04549
G1 X132.511 Y118.474 E1.11025
G1 X132.471 Y119.024 E1.12859
G1 X132.352 Y119.562 E1.14692
G1 X132.156 Y120.077 E1.16524
G1 X131.888 Y120.558 E1.18356
G1 X131.554 Y120.996 E1.20188
G1 X131.3 Y121.255 E1.21394
G1 X131.141 Y121.403 E1.22117
G1 X130.712 Y121.749 E1.2395
G1 X130.237 Y122.028 E1.25782
G1 X129.86 Y122.19 E1.27147
G1 X129.65 Y122.267 E1.27891
G1 X129.12 Y122.418 E1.29724
G1 X128.767 Y122.475 E1.30913
G1 X128.536 Y122.501 E1.31686
G1 X128.111 Y122.525 E1.33102
G1 X107.103 Y122.525 E2.02975
G1 X106.802 Y122.513 E2.03977
G1 X106.626 Y122.499 E2.04564
G1 X105.97 Y122.389 E2.06776
G1 X105.747 Y122.331 E2.07543
G1 X105.351 Y122.204 E2.08926
G1 X105.03 Y122.067 E2.10087
G1 X104.825 Y121.968 E2.10844
G1 X104.599 Y121.849 E2.11693
G1 X104.127 Y121.535 E2.13579
G1 X103.946 Y121.394 E2.14342
G1 X103.666 Y121.153 E2.15571
G1 X103.396 Y120.873 E2.16865
G1 X103.244 Y120.698 E2.17636
G1 X102.997 Y120.38 E2.18975
G1 X102.78 Y120.036 E2.20328
G1 X102.671 Y119.84 E2.21073
G1 X102.512 Y119.518 E2.22268
G1 X102.353 Y119.096 E2.23768
G1 X102.286 Y118.879 E2.24523
G1 X102.206 Y118.578 E2.25559
G1 X102.134 Y118.141 E2.27032
G1 X102.11 Y117.917 E2.27781
G1 X102.088 Y117.512 E2.2913
G1 X102.088 Y117.49 E2.29204
G1 X102.109 Y117.089 E2.30539
G1 X102.133 Y116.863 E2.31295
G1 X102.206 Y116.422 E2.32782
G1 X102.286 Y116.121 E2.33818
G1 X102.353 Y115.904 E2.34573
G1 X102.512 Y115.482 E2.36073
G1 X102.671 Y115.16 E2.37267
G1 X102.78 Y114.964 E2.38013
G1 X102.997 Y114.62 E2.39366
G1 X103.244 Y114.302 E2.40705
G1 X103.396 Y114.127 E2.41476
G1 X103.666 Y113.847 E2.4277
G0 F6000 X103.94 Y114.139
G1 F1200 X104.192 Y113.922 E2.43876
G1 X104.373 Y113.781 E2.44639
G1 X104.795 Y113.5 E2.46325
G1 X104.999 Y113.392 E2.47093
G1 X105.204 Y113.293 E2.4785
G1 X105.494 Y113.17 E2.48898
G1 X105.858 Y113.054 E2.50169
G1 X106.076 Y112.998 E2.50917
G1 X106.668 Y112.901 E2.52913
G1 X106.868 Y112.886 E2.5358
G1 X107.122 Y112.876 E2.54425
G1 X128.112 Y112.875 E3.24238
G1 X128.491 Y112.896 E3.25501
G1 X128.723 Y112.922 E3.26277
G1 X129.235 Y113.02 E3.28011
G1 X129.521 Y113.111 E3.29009
G1 X129.735 Y113.19 E3.29768
G1 X130.209 Y113.408 E3.31503
G1 X130.644 Y113.695 E3.33236
G1 X130.914 Y113.928 E3.34423
G1 X131.067 Y114.075 E3.35128
G1 X131.414 Y114.464 E3.36862
G1 X131.697 Y114.901 E3.38594
G1 X131.911 Y115.377 E3.4033
G1 X132.049 Y115.879 E3.42061
G1 X132.111 Y116.527 E3.44226
G1 X132.111 Y118.474 E3.50702
G1 X132.071 Y118.994 E3.52437
G1 X131.952 Y119.501 E3.54169
G1 X131.757 Y119.984 E3.55901
G1 X131.491 Y120.432 E3.57634
G1 X131.028 Y120.963 E3.59977
G1 X130.869 Y121.111 E3.607
G1 X130.461 Y121.436 E3.62435
G1 X130.009 Y121.694 E3.64166
G1 X129.722 Y121.814 E3.652
G1 X129.512 Y121.891 E3.65944
G1 X129.011 Y122.033 E3.67676
G1 X128.722 Y122.078 E3.68649
G1 X128.491 Y122.104 E3.69422
G1 X128.111 Y122.125 E3.70688
G1 X107.103 Y122.125 E4.40561
G1 X106.833 Y122.114 E4.4146
G1 X106.657 Y122.1 E4.42047
G1 X106.071 Y122.002 E4.44023
G1 X105.848 Y121.944 E4.44789
G1 X105.494 Y121.83 E4.46026
G1 X105.204 Y121.707 E4.47074
G1 X104.999 Y121.608 E4.47831
G1 X104.795 Y121.5 E4.48599
G1 X104.373 Y121.219 E4.50285
G1 X104.192 Y121.078 E4.51048
G1 X103.94 Y120.861 E4.52155
G1 X103.698 Y120.611 E4.53312
G1 X103.546 Y120.436 E4.54083
G1 X103.323 Y120.15 E4.55289
G1 X103.13 Y119.841 E4.56501
G1 X103.021 Y119.645 E4.57247
G1 X102.877 Y119.356 E4.58321
G1 X102.735 Y118.978 E4.59664
G1 X102.668 Y118.761 E4.60419
G1 X102.597 Y118.49 E4.61351
G1 X102.531 Y118.098 E4.62673
G1 X102.507 Y117.874 E4.63422
G1 X102.488 Y117.512 E4.64628
G1 X102.488 Y117.49 E4.64701
G1 X102.507 Y117.131 E4.65897
G1 X102.531 Y116.905 E4.66653
G1 X102.597 Y116.51 E4.67985
G1 X102.668 Y116.239 E4.68916
G1 X102.735 Y116.022 E4.69672
G1 X102.877 Y115.644 E4.71015
G1 X103.021 Y115.355 E4.72089
G1 X103.13 Y115.159 E4.72835
G1 X103.323 Y114.85 E4.74046
G1 X103.546 Y114.564 E4.75253
G1 X103.698 Y114.389 E4.76024
G1 X103.94 Y114.139 E4.77181
G0 F6000 X104.213 Y114.43
G1 F1200 X104.437 Y114.237 E4.78164
G1 X104.618 Y114.096 E4.78927
G1 X104.991 Y113.848 E4.80417
G1 X105.173 Y113.753 E4.811
G1 X105.378 Y113.654 E4.81857
G1 X105.636 Y113.544 E4.8279
G1 X105.958 Y113.441 E4.83914
G1 X106.176 Y113.385 E4.84663
G1 X106.698 Y113.299 E4.86423
G1 X106.898 Y113.284 E4.8709
G1 X107.122 Y113.276 E4.87835
G1 X128.112 Y113.275 E5.57648
G1 X128.446 Y113.294 E5.58761
G1 X128.678 Y113.32 E5.59537
G1 X129.383 Y113.487 E5.61947
G1 X129.597 Y113.566 E5.62706
G1 X130.041 Y113.772 E5.64334
G1 X130.445 Y114.048 E5.65961
G1 X130.636 Y114.217 E5.66809
G1 X130.789 Y114.364 E5.67515
G1 X131.114 Y114.73 E5.69143
G1 X131.374 Y115.145 E5.70772
G1 X131.563 Y115.597 E5.72401
G1 X131.676 Y116.073 E5.74029
G1 X131.711 Y116.527 E5.75543
G1 X131.711 Y118.474 E5.82019
G1 X131.671 Y118.962 E5.83647
G1 X131.552 Y119.437 E5.85276
G1 X131.358 Y119.886 E5.86903
G1 X131.093 Y120.298 E5.88532
G1 X130.755 Y120.67 E5.90204
G1 X130.596 Y120.818 E5.90926
G1 X130.212 Y121.121 E5.92553
G1 X129.585 Y121.439 E5.94892
G1 X129.375 Y121.516 E5.95635
G1 X128.678 Y121.68 E5.98017
G1 X128.447 Y121.706 E5.9879
G1 X128.111 Y121.725 E5.99909
G1 X107.103 Y121.725 E6.69782
G1 X106.865 Y121.716 E6.70575
G1 X106.689 Y121.702 E6.71162
G1 X106.172 Y121.614 E6.72906
G1 X105.949 Y121.556 E6.73672
G1 X105.636 Y121.456 E6.74765
G1 X105.378 Y121.346 E6.75698
G1 X105.173 Y121.247 E6.76455
G1 X104.991 Y121.152 E6.77138
G1 X104.618 Y120.904 E6.78628
G1 X104.437 Y120.763 E6.79391
G1 X104.213 Y120.57 E6.80374
G1 X104 Y120.348 E6.81398
G1 X103.848 Y120.173 E6.82169
G1 X103.65 Y119.919 E6.8324
G1 X103.479 Y119.647 E6.84308
G1 X103.37 Y119.451 E6.85054
G1 X103.243 Y119.193 E6.86011
G1 X103.118 Y118.86 E6.87194
G1 X103.051 Y118.643 E6.87949
G1 X102.987 Y118.401 E6.88782
G1 X102.929 Y118.056 E6.89945
G1 X102.905 Y117.832 E6.90695
G1 X102.888 Y117.512 E6.9176
G1 X102.888 Y117.49 E6.91834
G1 X102.905 Y117.173 E6.9289
G1 X102.929 Y116.947 E6.93645
G1 X102.987 Y116.599 E6.94819
G1 X103.051 Y116.357 E6.95651
G1 X103.118 Y116.14 E6.96407
G1 X103.243 Y115.807 E6.9759
G1 X103.37 Y115.549 E6.98546
G1 X103.479 Y115.353 E6.99292
G1 X103.65 Y115.081 E7.00361
G1 X103.848 Y114.827 E7.01432
G1 X104 Y114.652 E7.02203
G1 X104.213 Y114.43 E7.03226
G0 F6000 X104.487 Y114.722
G1 F1200 X104.683 Y114.553 E7.04087
G1 X104.864 Y114.412 E7.0485
G1 X105.187 Y114.197 E7.06141
G1 X105.347 Y114.113 E7.06742
G1 X105.552 Y114.014 E7.07499
G1 X105.778 Y113.917 E7.08317
G1 X106.057 Y113.829 E7.0929
G1 X106.275 Y113.773 E7.10038
G1 X106.728 Y113.698 E7.11566
G1 X106.928 Y113.683 E7.12233
G1 X107.122 Y113.676 E7.12878
G1 X128.112 Y113.675 E7.82691
G1 X128.402 Y113.691 E7.83657
G1 X128.634 Y113.717 E7.84434
G1 X129.244 Y113.862 E7.86519
G1 X129.458 Y113.941 E7.87278
G1 X129.87 Y114.136 E7.88794
G1 X130.359 Y114.505 E7.90832
G1 X130.512 Y114.652 E7.91537
G1 X130.812 Y114.995 E7.93053
G1 X131.047 Y115.386 E7.9457
G1 X131.21 Y115.811 E7.96084
G1 X131.297 Y116.258 E7.97599
G1 X131.311 Y116.527 E7.98495
G1 X131.311 Y118.474 E8.0497
G1 X131.271 Y118.928 E8.06486
G1 X131.153 Y119.368 E8.08001
G1 X130.959 Y119.78 E8.09516
G1 X130.696 Y120.153 E8.11034
G1 X130.482 Y120.377 E8.12064
G1 X130.323 Y120.525 E8.12787
G1 X129.964 Y120.805 E8.14301
G1 X129.447 Y121.063 E8.16223
G1 X129.237 Y121.14 E8.16967
G1 X128.633 Y121.283 E8.19031
G1 X128.402 Y121.309 E8.19804
G1 X128.111 Y121.325 E8.20774
G1 X107.103 Y121.325 E8.90647
G1 X106.897 Y121.317 E8.91332
G1 X106.721 Y121.303 E8.9192
G1 X106.273 Y121.227 E8.93431
G1 X106.05 Y121.169 E8.94197
G1 X105.778 Y121.083 E8.95146
G1 X105.552 Y120.986 E8.95964
G1 X105.347 Y120.887 E8.96721
G1 X105.187 Y120.803 E8.97322
G1 X104.864 Y120.588 E8.98613
G1 X104.683 Y120.447 E8.99376
G1 X104.487 Y120.278 E9.00237
G1 X104.302 Y120.086 E9.01124
G1 X104.15 Y119.911 E9.01894
G1 X103.977 Y119.688 E9.02833
G1 X103.829 Y119.453 E9.03757
G1 X103.72 Y119.257 E9.04503
G1 X103.608 Y119.031 E9.05342
G1 X103.5 Y118.742 E9.06368
G1 X103.433 Y118.525 E9.07123
G1 X103.377 Y118.312 E9.07856
G1 X103.327 Y118.013 E9.08864
G1 X103.303 Y117.789 E9.09613
G1 X103.288 Y117.512 E9.10536
G1 X103.288 Y117.49 E9.10609
G1 X103.303 Y117.215 E9.11525
G1 X103.327 Y116.989 E9.12281
G1 X103.377 Y116.688 E9.13296
G1 X103.433 Y116.475 E9.14028
G1 X103.5 Y116.258 E9.14784
G1 X103.608 Y115.969 E9.1581
G1 X103.72 Y115.743 E9.16649
G1 X103.829 Y115.547 E9.17395
G1 X103.977 Y115.312 E9.18319
G1 X104.15 Y115.089 E9.19257
G1 X104.302 Y114.914 E9.20028
G1 X104.487 Y114.722 E9.20915
G0 F6000 X104.76 Y115.014
G1 F1200 X104.929 Y114.868 E9.21658
G1 X105.11 Y114.727 E9.22421
G1 X105.383 Y114.546 E9.2351
G1 X105.521 Y114.473 E9.2403
G1 X105.726 Y114.374 E9.24787
G1 X105.921 Y114.291 E9.25492
G1 X106.157 Y114.216 E9.26315
G1 X106.375 Y114.16 E9.27064
G1 X106.757 Y114.097 E9.28352
G1 X106.957 Y114.082 E9.29019
G1 X107.122 Y114.076 E9.29568
G1 X128.112 Y114.075 E9.99381
G1 X128.357 Y114.089 E10.00197
G1 X128.589 Y114.115 E10.00974
G1 X129.106 Y114.237 E10.0274
G1 X129.32 Y114.316 E10.03499
G1 X129.697 Y114.498 E10.04891
G1 X130.082 Y114.794 E10.06507
G1 X130.235 Y114.941 E10.07212
G1 X130.508 Y115.258 E10.08604
G1 X130.716 Y115.622 E10.09998
G1 X130.852 Y116.019 E10.11394
G1 X130.911 Y116.527 E10.13095
G1 X130.911 Y118.474 E10.19571
G1 X130.871 Y118.891 E10.20964
G1 X130.753 Y119.293 E10.22357
G1 X130.56 Y119.665 E10.23751
G1 X130.21 Y120.084 E10.25567
G1 X130.051 Y120.232 E10.2629
G1 X129.718 Y120.487 E10.27685
G1 X129.309 Y120.688 E10.292
G1 X129.099 Y120.765 E10.29944
G1 X128.588 Y120.885 E10.3169
G1 X128.357 Y120.911 E10.32463
G1 X128.111 Y120.925 E10.33283
G1 X107.103 Y120.925 E11.03156
G1 X106.929 Y120.918 E11.03735
G1 X106.753 Y120.904 E11.04322
G1 X106.373 Y120.84 E11.05604
G1 X106.15 Y120.782 E11.0637
G1 X105.921 Y120.709 E11.0717
G1 X105.726 Y120.626 E11.07874
G1 X105.521 Y120.527 E11.08632
G1 X105.383 Y120.454 E11.09151
G1 X105.11 Y120.273 E11.1024
G1 X104.929 Y120.132 E11.11003
G1 X104.76 Y119.986 E11.11746
G1 X104.604 Y119.824 E11.12494
G1 X104.452 Y119.649 E11.13265
G1 X104.304 Y119.458 E11.14069
G1 X104.178 Y119.258 E11.14855
G1 X104.069 Y119.062 E11.15601
G1 X103.974 Y118.869 E11.16317
G1 X103.882 Y118.624 E11.17187
G1 X103.815 Y118.407 E11.17942
G1 X103.767 Y118.224 E11.18572
G1 X103.725 Y117.97 E11.19428
G1 X103.701 Y117.746 E11.20177
G1 X103.688 Y117.512 E11.20957
G1 X103.688 Y117.49 E11.2103
G1 X103.7 Y117.258 E11.21802
G1 X103.724 Y117.032 E11.22558
G1 X103.767 Y116.776 E11.23422
G1 X103.815 Y116.593 E11.24051
G1 X103.882 Y116.376 E11.24806
G1 X103.974 Y116.131 E11.25677
G1 X104.069 Y115.938 E11.26392
G1 X104.178 Y115.742 E11.27138
G1 X104.304 Y115.542 E11.27924
G1 X104.452 Y115.351 E11.28728
G1 X104.604 Y115.176 E11.29499
G1 X104.76 Y115.014 E11.30247
G0 F6000 X105.034 Y115.306
G1 F1200 X105.175 Y115.184 E11.30867
G1 X105.356 Y115.043 E11.3163
G1 X105.58 Y114.894 E11.32525
G1 X105.695 Y114.833 E11.32958
G1 X105.9 Y114.734 E11.33715
G1 X106.063 Y114.665 E11.34304
G1 X106.256 Y114.604 E11.34977
G1 X106.474 Y114.548 E11.35726
G1 X106.787 Y114.496 E11.36781
G1 X106.987 Y114.481 E11.37448
G1 X107.122 Y114.476 E11.37897
G1 X128.112 Y114.475 E12.07711
G1 X128.312 Y114.486 E12.08377
G1 X128.544 Y114.512 E12.09153
G1 X128.967 Y114.612 E12.10599
G1 X129.181 Y114.691 E12.11358
G1 X129.521 Y114.859 E12.12619
G1 X129.805 Y115.082 E12.1382
G1 X129.958 Y115.229 E12.14526
G1 X130.202 Y115.519 E12.15786
G1 X130.38 Y115.853 E12.17045
G1 X130.484 Y116.218 E12.18307
G1 X130.511 Y116.527 E12.19339
G1 X130.511 Y118.474 E12.25815
G1 X130.471 Y118.851 E12.27076
G1 X130.353 Y119.211 E12.28336
G1 X130.163 Y119.538 E12.29594
G1 X129.937 Y119.792 E12.30724
G1 X129.778 Y119.94 E12.31447
G1 X129.475 Y120.167 E12.32706
G1 X129.172 Y120.312 E12.33823
G1 X128.962 Y120.389 E12.34567
G1 X128.543 Y120.488 E12.35999
G1 X128.312 Y120.514 E12.36772
G1 X128.111 Y120.525 E12.37442
G1 X107.103 Y120.525 E13.07315
G1 X106.96 Y120.519 E13.07791
G1 X106.784 Y120.505 E13.08378
G1 X106.474 Y120.453 E13.09424
G1 X106.251 Y120.395 E13.1019
G1 X106.063 Y120.335 E13.10846
G1 X105.9 Y120.266 E13.11435
G1 X105.695 Y120.167 E13.12192
G1 X105.58 Y120.106 E13.12625
G1 X105.356 Y119.957 E13.1352
G1 X105.175 Y119.816 E13.14283
G1 X105.034 Y119.694 E13.14903
G1 X104.906 Y119.561 E13.15517
G1 X104.754 Y119.386 E13.16288
G1 X104.63 Y119.227 E13.16959
G1 X104.528 Y119.064 E13.17598
G1 X104.419 Y118.868 E13.18344
G1 X104.339 Y118.706 E13.18945
G1 X104.264 Y118.506 E13.19656
G1 X104.197 Y118.289 E13.20411
G1 X104.157 Y118.135 E13.2094
G1 X104.122 Y117.928 E13.21638
G1 X104.098 Y117.704 E13.22388
G1 X104.088 Y117.512 E13.23027
G1 X104.088 Y117.49 E13.231
G1 X104.098 Y117.3 E13.23733
G1 X104.122 Y117.074 E13.24489
G1 X104.157 Y116.865 E13.25194
G1 X104.197 Y116.711 E13.25723
G1 X104.264 Y116.494 E13.26478
G1 X104.339 Y116.294 E13.27189
G1 X104.419 Y116.132 E13.2779
G1 X104.528 Y115.936 E13.28536
G1 X104.63 Y115.773 E13.29175
G1 X104.754 Y115.614 E13.29846
G1 X104.906 Y115.439 E13.30617
G1 X105.034 Y115.306 E13.31231
G0 F6000 X105.323 Y115.583
G1 F1200 X105.421 Y115.5 E13.31658
G1 X105.602 Y115.359 E13.32421
G1 X105.776 Y115.243 E13.33117
G1 X105.869 Y115.193 E13.33468
G1 X106.074 Y115.094 E13.34225
G1 X106.206 Y115.039 E13.34701
G1 X106.356 Y114.991 E13.35224
G1 X106.574 Y114.935 E13.35973
G1 X106.817 Y114.895 E13.36792
G1 X107.017 Y114.88 E13.37459
G1 X107.122 Y114.876 E13.37809
G1 X128.112 Y114.875 E14.07622
G1 X128.268 Y114.884 E14.08141
G1 X128.5 Y114.91 E14.08918
G1 X128.829 Y114.988 E14.10042
G1 X129.043 Y115.067 E14.10801
G1 X129.34 Y115.219 E14.11911
G1 X129.528 Y115.37 E14.12713
G1 X129.681 Y115.517 E14.13419
G1 X129.893 Y115.776 E14.14532
G1 X130.037 Y116.077 E14.15642
G1 X130.111 Y116.527 E14.17158
G1 X130.111 Y118.474 E14.23634
G1 X130.071 Y118.806 E14.24746
G1 X129.954 Y119.118 E14.25855
G1 X129.665 Y119.499 E14.27445
G1 X129.506 Y119.647 E14.28168
G1 X129.236 Y119.844 E14.29279
