;FLAVOR:Marlin
;TIME:2155
;Filament used: 0.519531m
;Layer height: 0.15
;MINX:104.251
;MINY:97.696
;MINZ:0.2
;MAXX:130.983
;MAXY:107.795
;MAXZ:32.08
;Generated with Cura_SteamEngine 4.7.1
M140 S50
M105
M190 S50
M104 S200
M105
M109 S200
M82 ;absolute extrusion mode
; Ender 3 Custom Start G-code
G92 E0 ; Reset Extruder
G28 ; Home all axes
G1 Z2.0 F3000 ; Move Z Axis up little to prevent scratching of Heat Bed
G1 X0.1 Y20 Z0.3 F5000.0 ; Move to start position
G1 X0.1 Y200.0 Z0.3 F1500.0 E15 ; Draw the first line
G1 X0.4 Y200.0 Z0.3 F5000.0 ; Move to side a little
G1 X0.4 Y20 Z0.3 F1500.0 E30 ; Draw the second line
G92 E0 ; Reset Extruder
G1 Z2.0 F3000 ; Move Z Axis up little to prevent scratching of Heat Bed
G1 X5 Y20 Z0.3 F5000.0 ; Move over to prevent blob squish
G92 E0
G92 E0
G1 F2700 E-5
;LAYER_COUNT:235
;LAYER:0
M107
G0 F6000 X105.37 Y99.143 Z0.2
;TYPE:SKIRT
G1 F2700 E0
G1 F1200 X105.563 Y98.95 E0.00908
G1 X105.98 Y98.59 E0.0274
G1 X106.444 Y98.293 E0.04572
G1 X106.785 Y98.131 E0.05828
G1 X107.034 Y98.027 E0.06726
G1 X107.557 Y97.852 E0.0856
G1 X107.999 Y97.766 E0.10058
G1 X108.278 Y97.729 E0.10994
G1 X108.79 Y97.696 E0.127
G1 X110.066 Y97.7 E0.16944
G1 X110.615 Y97.742 E0.18775
G1 X110.851 Y97.795 E0.1958
G1 X110.976 Y97.763 E0.20009
G1 X111.649 Y97.705 E0.22256
G1 X125.982 Y97.746 E0.69928
G1 X126.325 Y97.763 E0.7107
G1 X126.56 Y97.785 E0.71855
G1 X127.167 Y97.891 E0.73904
G1 X127.278 Y97.92 E0.74286
G1 X127.747 Y98.076 E0.7593
G1 X127.971 Y98.167 E0.76734
G1 X128.465 Y98.411 E0.78567
G1 X128.794 Y98.628 E0.79878
G1 X129.09 Y98.846 E0.811
G1 X129.509 Y99.204 E0.82933
G1 X129.738 Y99.451 E0.84053
G1 X129.881 Y99.62 E0.8479
G1 X130.314 Y100.252 E0.87338
G1 X130.39 Y100.391 E0.87865
G1 X130.572 Y100.772 E0.89269
G1 X130.661 Y100.989 E0.90049
G1 X130.832 Y101.513 E0.91883
G1 X130.907 Y101.897 E0.93184
G1 X130.954 Y102.228 E0.94296
G1 X130.983 Y103.029 E0.96962
G1 X130.968 Y103.242 E0.97672
G1 X130.881 Y103.824 E0.99629
G1 X130.845 Y103.981 E1.00165
G1 X130.653 Y104.584 E1.0227
G1 X130.567 Y104.792 E1.03018
G1 X130.32 Y105.285 E1.04852
G1 X130.108 Y105.603 E1.06123
G1 X129.896 Y105.889 E1.07308
G1 X129.536 Y106.307 E1.09142
G1 X129.301 Y106.524 E1.10206
G1 X129.13 Y106.669 E1.10952
G1 X128.685 Y106.994 E1.12785
G1 X128.4 Y107.155 E1.13873
G1 X128.069 Y107.324 E1.1511
G1 X127.561 Y107.539 E1.16944
G1 X127.205 Y107.64 E1.18175
G1 X127.038 Y107.679 E1.18745
G1 X126.455 Y107.769 E1.20707
G1 X126.239 Y107.785 E1.21428
G1 X125.947 Y107.795 E1.224
G1 X111.578 Y107.755 E1.70191
G1 X111.029 Y107.714 E1.72022
G1 X110.828 Y107.669 E1.72707
G1 X110.805 Y107.675 E1.72786
G1 X110.036 Y107.751 E1.75357
G1 X108.751 Y107.747 E1.79631
G1 X108.229 Y107.709 E1.81371
G1 X107.954 Y107.67 E1.82295
G1 X107.416 Y107.554 E1.84126
G1 X107.024 Y107.415 E1.85509
G1 X106.794 Y107.319 E1.86338
G1 X106.303 Y107.07 E1.88169
G1 X106.041 Y106.898 E1.89211
G1 X105.874 Y106.778 E1.89895
G1 X105.451 Y106.425 E1.91728
G1 X105.083 Y106.014 E1.93563
G1 X104.668 Y105.342 E1.9619
G1 X104.628 Y105.259 E1.96496
G1 X104.425 Y104.746 E1.98331
G1 X104.299 Y104.21 E2.00162
G1 X104.251 Y103.596 E2.02211
G1 X104.257 Y101.817 E2.08128
G1 X104.299 Y101.268 E2.09959
G1 X104.42 Y100.73 E2.11793
G1 X104.617 Y100.216 E2.13624
G1 X104.887 Y99.735 E2.15459
G1 X105.37 Y99.143 E2.18
G0 F6000 X105.653 Y99.426
G1 F1200 X105.846 Y99.233 E2.18908
G1 X106.242 Y98.894 E2.20642
G1 X106.684 Y98.619 E2.22373
G1 X106.94 Y98.5 E2.23312
G1 X107.189 Y98.396 E2.24209
G1 X107.683 Y98.232 E2.25941
G1 X108.052 Y98.163 E2.27189
G1 X108.331 Y98.126 E2.28125
G1 X108.789 Y98.096 E2.29652
G1 X110.065 Y98.1 E2.33896
G1 X110.584 Y98.142 E2.35628
G1 X110.848 Y98.205 E2.3653
G1 X110.95 Y98.175 E2.36884
G1 X111.648 Y98.105 E2.39217
G1 X125.981 Y98.146 E2.86889
G1 X126.288 Y98.161 E2.87912
G1 X126.523 Y98.183 E2.88697
G1 X127.065 Y98.278 E2.90527
G1 X127.176 Y98.307 E2.90908
G1 X127.597 Y98.447 E2.92384
G1 X127.821 Y98.538 E2.93188
G1 X128.287 Y98.771 E2.94921
G1 X128.557 Y98.95 E2.95998
G1 X128.853 Y99.168 E2.97221
G1 X129.248 Y99.509 E2.98957
G1 X129.433 Y99.71 E2.99865
G1 X129.576 Y99.879 E3.00602
G1 X129.963 Y100.444 E3.02879
G1 X130.039 Y100.583 E3.03406
G1 X130.202 Y100.924 E3.04663
G1 X130.291 Y101.141 E3.05443
G1 X130.451 Y101.637 E3.07177
G1 X130.511 Y101.953 E3.08247
G1 X130.558 Y102.284 E3.09359
G1 X130.584 Y103.001 E3.11745
G1 X130.569 Y103.214 E3.12455
G1 X130.491 Y103.735 E3.14207
G1 X130.455 Y103.892 E3.14743
G1 X130.283 Y104.431 E3.16625
G1 X130.197 Y104.639 E3.17373
G1 X129.962 Y105.104 E3.19106
G1 X129.786 Y105.365 E3.20153
G1 X129.574 Y105.651 E3.21337
G1 X129.042 Y106.219 E3.23926
G1 X128.871 Y106.364 E3.24672
G1 X128.449 Y106.67 E3.26405
G1 X128.218 Y106.799 E3.27285
G1 X127.887 Y106.968 E3.28521
G1 X127.406 Y107.169 E3.30255
G1 X127.114 Y107.251 E3.31264
G1 X126.947 Y107.29 E3.31834
G1 X126.425 Y107.37 E3.33591
G1 X126.209 Y107.386 E3.34311
G1 X125.949 Y107.395 E3.35177
G1 X111.58 Y107.355 E3.82968
G1 X111.06 Y107.314 E3.84703
G1 X110.81 Y107.254 E3.85558
G1 X110.615 Y107.303 E3.86227
G1 X110.037 Y107.351 E3.88156
G1 X108.752 Y107.347 E3.9243
G1 X108.286 Y107.313 E3.93984
G1 X108.011 Y107.274 E3.94908
G1 X107.502 Y107.162 E3.96641
G1 X107.178 Y107.046 E3.97786
G1 X106.948 Y106.95 E3.98615
G1 X106.274 Y106.573 E4.01183
G1 X106.107 Y106.453 E4.01867
G1 X105.708 Y106.117 E4.03602
G1 X105.366 Y105.725 E4.05333
G1 X105.028 Y105.168 E4.075
G1 X104.988 Y105.085 E4.07806
G1 X104.799 Y104.6 E4.09537
G1 X104.685 Y104.091 E4.11272
G1 X104.651 Y103.598 E4.12916
G1 X104.657 Y101.819 E4.18833
G1 X104.699 Y101.299 E4.20568
G1 X104.819 Y100.792 E4.22301
G1 X105.016 Y100.309 E4.24036
G1 X105.284 Y99.863 E4.25766
G1 X105.653 Y99.426 E4.27669
G0 F6000 X105.936 Y99.709
G1 F1200 X106.129 Y99.516 E4.28577
G1 X106.502 Y99.199 E4.30205
G1 X107.094 Y98.869 E4.32459
G1 X107.343 Y98.765 E4.33356
G1 X107.808 Y98.614 E4.34983
G1 X108.105 Y98.559 E4.35987
G1 X108.384 Y98.522 E4.36923
G1 X108.787 Y98.496 E4.38266
G1 X110.063 Y98.5 E4.4251
G1 X110.551 Y98.541 E4.44139
G1 X110.851 Y98.617 E4.45169
G1 X110.959 Y98.583 E4.45545
G1 X111.647 Y98.505 E4.47848
G1 X125.98 Y98.546 E4.9552
G1 X126.251 Y98.559 E4.96422
G1 X126.486 Y98.581 E4.97207
G1 X126.964 Y98.665 E4.98822
G1 X127.075 Y98.694 E4.99203
G1 X127.446 Y98.818 E5.00504
G1 X127.67 Y98.909 E5.01308
G1 X128.107 Y99.129 E5.02936
G1 X128.32 Y99.272 E5.03789
G1 X128.616 Y99.49 E5.05012
G1 X129.127 Y99.968 E5.07339
G1 X129.27 Y100.137 E5.08075
G1 X129.612 Y100.636 E5.10087
G1 X129.688 Y100.775 E5.10614
G1 X129.832 Y101.076 E5.11724
G1 X129.921 Y101.293 E5.12504
G1 X130.069 Y101.759 E5.1413
G1 X130.115 Y102.009 E5.14976
G1 X130.162 Y102.34 E5.16088
G1 X130.185 Y102.973 E5.18195
G1 X130.17 Y103.186 E5.18905
G1 X130.101 Y103.645 E5.20448
G1 X130.065 Y103.802 E5.20984
G1 X129.913 Y104.278 E5.22646
G1 X129.827 Y104.486 E5.23395
G1 X129.604 Y104.922 E5.25024
G1 X129.465 Y105.126 E5.25845
G1 X129.253 Y105.412 E5.27029
G1 X128.783 Y105.914 E5.29316
G1 X128.612 Y106.059 E5.30062
G1 X128.036 Y106.443 E5.32364
G1 X127.705 Y106.612 E5.336
G1 X127.023 Y106.861 E5.36015
G1 X126.856 Y106.9 E5.36585
G1 X126.396 Y106.971 E5.38134
G1 X126.18 Y106.987 E5.38854
G1 X125.95 Y106.995 E5.39619
G1 X111.581 Y106.955 E5.87411
G1 X111.093 Y106.914 E5.8904
G1 X110.818 Y106.844 E5.89984
G1 X110.43 Y106.927 E5.91303
G1 X110.039 Y106.951 E5.92606
G1 X108.754 Y106.947 E5.9688
G1 X108.342 Y106.917 E5.98254
G1 X108.067 Y106.878 E5.99178
G1 X107.589 Y106.77 E6.00808
G1 X107.332 Y106.677 E6.01717
G1 X107.102 Y106.581 E6.02546
G1 X106.507 Y106.248 E6.04814
G1 X106.34 Y106.128 E6.05498
G1 X105.968 Y105.811 E6.07123
G1 X105.651 Y105.438 E6.08751
G1 X105.388 Y104.994 E6.10468
G1 X105.348 Y104.911 E6.10774
G1 X105.173 Y104.455 E6.12399
G1 X105.073 Y103.975 E6.14029
G1 X105.051 Y103.599 E6.15282
G1 X105.057 Y101.82 E6.21199
G1 X105.099 Y101.332 E6.22828
G1 X105.219 Y100.858 E6.24455
G1 X105.415 Y100.409 E6.26084
G1 X105.681 Y99.998 E6.27712
G1 X105.936 Y99.709 E6.28994
G0 F6000 X106.219 Y99.992
G1 F1200 X106.412 Y99.799 E6.29902
G1 X106.761 Y99.506 E6.31418
G1 X107.248 Y99.238 E6.33266
G1 X107.497 Y99.134 E6.34164
G1 X107.931 Y98.996 E6.35679
G1 X108.157 Y98.956 E6.36442
G1 X108.436 Y98.919 E6.37378
G1 X108.786 Y98.896 E6.38545
G1 X110.062 Y98.9 E6.42789
G1 X110.516 Y98.941 E6.44305
G1 X110.857 Y99.034 E6.45481
G1 X111.004 Y98.983 E6.45998
G1 X111.645 Y98.905 E6.48146
G1 X125.978 Y98.946 E6.95818
G1 X126.213 Y98.957 E6.966
G1 X126.448 Y98.979 E6.97385
G1 X126.863 Y99.052 E6.98787
G1 X126.974 Y99.081 E6.99168
G1 X127.296 Y99.188 E7.00297
G1 X127.52 Y99.279 E7.01101
G1 X128.083 Y99.594 E7.03247
G1 X128.379 Y99.812 E7.04469
G1 X128.822 Y100.227 E7.06488
G1 X128.965 Y100.396 E7.07225
G1 X129.261 Y100.828 E7.08966
G1 X129.337 Y100.967 E7.09493
G1 X129.462 Y101.227 E7.10453
G1 X129.551 Y101.444 E7.11233
G1 X129.719 Y102.065 E7.13373
G1 X129.766 Y102.396 E7.14485
G1 X129.786 Y102.945 E7.16312
G1 X129.771 Y103.158 E7.17022
G1 X129.711 Y103.556 E7.18361
G1 X129.675 Y103.713 E7.18896
G1 X129.544 Y104.125 E7.20334
G1 X129.458 Y104.333 E7.21083
G1 X129.144 Y104.888 E7.23204
G1 X128.932 Y105.174 E7.24388
G1 X128.525 Y105.609 E7.26369
G1 X128.354 Y105.754 E7.27115
G1 X127.854 Y106.087 E7.29113
G1 X127.523 Y106.256 E7.30349
G1 X126.932 Y106.472 E7.32442
G1 X126.765 Y106.511 E7.33012
G1 X126.366 Y106.572 E7.34355
G1 X126.15 Y106.588 E7.35075
G1 X125.951 Y106.595 E7.35738
G1 X111.582 Y106.555 E7.83529
G1 X111.128 Y106.514 E7.85045
G1 X110.812 Y106.428 E7.86135
G1 X110.703 Y106.467 E7.8652
G1 X110.04 Y106.551 E7.88742
G1 X108.755 Y106.547 E7.93016
G1 X108.398 Y106.521 E7.94207
G1 X108.123 Y106.482 E7.95131
G1 X107.487 Y106.307 E7.97325
G1 X107.257 Y106.211 E7.98154
G1 X106.741 Y105.923 E8.00119
G1 X106.574 Y105.803 E8.00803
G1 X106.229 Y105.506 E8.02317
G1 X105.94 Y105.153 E8.03835
G1 X105.749 Y104.821 E8.05108
G1 X105.709 Y104.738 E8.05415
G1 X105.548 Y104.312 E8.0693
G1 X105.464 Y103.864 E8.08446
G1 X105.451 Y103.6 E8.09325
G1 X105.457 Y101.821 E8.15242
G1 X105.498 Y101.367 E8.16758
G1 X105.618 Y100.928 E8.18272
G1 X105.813 Y100.516 E8.19788
G1 X106.219 Y99.992 E8.21992
G0 F6000 X106.501 Y100.274
G1 F1200 X106.694 Y100.081 E8.229
G1 X107.018 Y99.815 E8.24294
G1 X107.402 Y99.607 E8.25747
G1 X107.651 Y99.503 E8.26645
G1 X108.21 Y99.352 E8.2857
G1 X108.489 Y99.315 E8.29506
G1 X108.785 Y99.296 E8.30493
G1 X110.061 Y99.3 E8.34737
G1 X110.478 Y99.341 E8.36131
G1 X110.864 Y99.456 E8.3747
G1 X111.086 Y99.375 E8.38256
G1 X111.644 Y99.305 E8.40127
G1 X125.977 Y99.346 E8.87799
G1 X126.176 Y99.356 E8.88461
G1 X126.411 Y99.378 E8.89246
G1 X126.762 Y99.439 E8.90431
G1 X126.873 Y99.468 E8.90813
G1 X127.145 Y99.559 E8.91767
G1 X127.369 Y99.65 E8.92571
G1 X127.846 Y99.917 E8.94389
G1 X128.142 Y100.135 E8.95612
G1 X128.516 Y100.485 E8.97316
G1 X128.659 Y100.654 E8.98052
G1 X128.91 Y101.02 E8.99528
G1 X128.986 Y101.159 E9.00055
G1 X129.091 Y101.379 E9.00866
G1 X129.18 Y101.596 E9.01646
G1 X129.323 Y102.122 E9.03459
G1 X129.37 Y102.453 E9.04571
G1 X129.387 Y102.917 E9.06115
G1 X129.372 Y103.13 E9.06825
G1 X129.321 Y103.467 E9.07959
G1 X129.285 Y103.624 E9.08495
G1 X129.174 Y103.973 E9.09713
G1 X129.088 Y104.181 E9.10461
G1 X128.822 Y104.65 E9.12255
G1 X128.61 Y104.936 E9.13439
G1 X128.266 Y105.304 E9.15114
G1 X128.095 Y105.449 E9.1586
G1 X127.672 Y105.73 E9.17549
G1 X127.341 Y105.899 E9.18785
G1 X126.841 Y106.082 E9.20556
G1 X126.674 Y106.121 E9.21126
G1 X126.337 Y106.173 E9.2226
G1 X126.121 Y106.189 E9.22981
G1 X125.952 Y106.195 E9.23543
G1 X111.583 Y106.155 E9.71335
G1 X111.166 Y106.114 E9.72728
G1 X110.808 Y106.008 E9.7397
G1 X110.504 Y106.103 E9.7503
G1 X110.041 Y106.151 E9.76578
G1 X108.756 Y106.147 E9.80852
G1 X108.454 Y106.125 E9.81859
G1 X108.179 Y106.086 E9.82783
G1 X107.641 Y105.938 E9.84639
G1 X107.411 Y105.842 E9.85468
G1 X106.974 Y105.599 E9.87131
G1 X106.807 Y105.479 E9.87815
G1 X106.492 Y105.203 E9.89208
G1 X106.234 Y104.872 E9.90603
G1 X106.109 Y104.647 E9.91459
G1 X106.069 Y104.564 E9.91766
G1 X105.924 Y104.171 E9.93159
G1 X105.851 Y103.602 E9.95067
G1 X105.857 Y101.823 E10.00984
G1 X105.898 Y101.406 E10.02378
G1 X106.018 Y101.004 E10.03773
G1 X106.212 Y100.632 E10.05169
G1 X106.501 Y100.274 E10.06699
G0 F6000 X106.784 Y100.557
G1 F1200 X106.977 Y100.364 E10.07607
G1 X107.272 Y100.126 E10.08867
G1 X107.556 Y99.976 E10.09936
G1 X107.805 Y99.872 E10.10833
G1 X108.262 Y99.749 E10.12407
G1 X108.541 Y99.712 E10.13343
G1 X108.784 Y99.696 E10.14153
G1 X110.06 Y99.7 E10.18397
G1 X110.436 Y99.741 E10.19655
G1 X110.796 Y99.86 E10.20916
G1 X110.846 Y99.889 E10.21109
G1 X111.205 Y99.758 E10.2238
G1 X111.643 Y99.705 E10.23847
G1 X125.976 Y99.746 E10.71519
G1 X126.139 Y99.754 E10.72062
G1 X126.374 Y99.776 E10.72847
G1 X126.661 Y99.826 E10.73816
G1 X126.772 Y99.855 E10.74197
G1 X126.994 Y99.929 E10.74976
G1 X127.218 Y100.02 E10.7578
G1 X127.608 Y100.239 E10.77267
G1 X127.904 Y100.457 E10.7849
G1 X128.211 Y100.743 E10.79886
G1 X128.354 Y100.912 E10.80622
G1 X128.559 Y101.211 E10.81828
G1 X128.635 Y101.35 E10.82355
G1 X128.721 Y101.531 E10.83021
G1 X128.81 Y101.748 E10.83801
G1 X128.927 Y102.178 E10.85283
G1 X128.974 Y102.509 E10.86395
G1 X128.988 Y102.888 E10.87657
G1 X128.973 Y103.101 E10.88367
G1 X128.931 Y103.377 E10.89296
G1 X128.895 Y103.534 E10.89831
G1 X128.804 Y103.82 E10.9083
G1 X128.718 Y104.028 E10.91578
G1 X128.501 Y104.412 E10.93045
G1 X128.289 Y104.698 E10.94229
G1 X128.007 Y104.999 E10.95601
G1 X127.836 Y105.144 E10.96347
G1 X127.491 Y105.374 E10.97726
G1 X127.16 Y105.543 E10.98962
G1 X126.75 Y105.693 E11.00414
G1 X126.583 Y105.732 E11.00984
G1 X126.307 Y105.774 E11.01913
G1 X126.091 Y105.79 E11.02633
G1 X125.953 Y105.795 E11.03093
G1 X111.584 Y105.755 E11.50884
G1 X111.207 Y105.714 E11.52146
G1 X110.847 Y105.595 E11.53407
G1 X110.808 Y105.572 E11.53557
G1 X110.681 Y105.636 E11.5403
G1 X110.314 Y105.731 E11.55291
G1 X110.042 Y105.751 E11.56198
G1 X108.757 Y105.747 E11.60472
G1 X108.51 Y105.729 E11.61296
G1 X108.235 Y105.69 E11.6222
G1 X107.795 Y105.569 E11.63738
G1 X107.565 Y105.473 E11.64567
G1 X107.208 Y105.274 E11.65926
G1 X107.041 Y105.154 E11.6661
G1 X106.758 Y104.901 E11.67872
G1 X106.469 Y104.473 E11.6959
G1 X106.429 Y104.39 E11.69897
G1 X106.302 Y104.034 E11.71154
G1 X106.251 Y103.603 E11.72597
G1 X106.257 Y101.824 E11.78514
G1 X106.298 Y101.447 E11.79776
G1 X106.417 Y101.087 E11.81037
G1 X106.609 Y100.761 E11.82295
G1 X106.784 Y100.557 E11.83189
G0 F6000 X107.067 Y100.84
G1 F1200 X107.26 Y100.647 E11.84097
G1 X107.523 Y100.441 E11.85208
G1 X107.71 Y100.345 E11.85907
G1 X107.959 Y100.241 E11.86805
G1 X108.315 Y100.145 E11.88031
G1 X108.594 Y100.108 E11.88967
G1 X108.782 Y100.096 E11.89594
G1 X110.058 Y100.1 E11.93838
G1 X110.39 Y100.141 E11.9495
G1 X110.702 Y100.259 E11.9606
G1 X110.843 Y100.363 E11.96642
G1 X111.044 Y100.237 E11.97431
G1 X111.361 Y100.133 E11.98541
G1 X111.642 Y100.105 E11.9948
G1 X125.975 Y100.146 E12.47152
G1 X126.101 Y100.152 E12.47572
G1 X126.336 Y100.174 E12.48357
G1 X126.56 Y100.213 E12.49113
G1 X126.671 Y100.242 E12.49495
G1 X126.844 Y100.3 E12.50101
G1 X127.068 Y100.391 E12.50906
G1 X127.371 Y100.561 E12.52061
G1 X127.667 Y100.779 E12.53284
G1 X127.906 Y101.002 E12.54371
G1 X128.049 Y101.171 E12.55107
G1 X128.208 Y101.403 E12.56043
G1 X128.284 Y101.542 E12.5657
G1 X128.351 Y101.683 E12.57089
G1 X128.44 Y101.9 E12.57869
G1 X128.531 Y102.234 E12.5902
G1 X128.578 Y102.565 E12.60132
G1 X128.589 Y102.86 E12.61114
G1 X128.574 Y103.073 E12.61824
G1 X128.542 Y103.288 E12.62547
G1 X128.506 Y103.445 E12.63083
G1 X128.435 Y103.667 E12.63858
